X:1
T:The Brown and the Yellow Ale
M:4/4
L:1/4
K:G
 z3 G| G G/2G/2 G/2G/2 G| B A A D| G F G A/2A/2| B A B c/2c/2| d d/2d/2 B G/2G/2|\
 c B/2B/2 A D| G E D D| D4|
